X:1
T:Title
L:1/8
Q:1/4=100
M:4/4
K:F
V:1 treble nm="Grand Piano"
V:1
 D2 D2 D2 D2 | D2 FD E2 E2 | z E2 E E2 E2 | E2 GE F2 F2 | z FFF F2 F2 | F2 A^F G2 G2 | %6
w: ????~???? * * *||||||
 z E2 F G2 A2 | cBAG A4 | z G2 A BAGF | E F2 G AGFE | D G2 A BAGF | E F2 G AGFE | D E2 F G^FGF | %13
w: |||||||
 GBAG FE D2 | z E2 F G^FGF | GBAG FE D2 |] %16
w: |||

